X: 1
T: Hambo efter Tomas Andersson
R: Hambo-polska
N: Learned from Andrea Hoag
M: 3/4
L: 1/8
K: D
e \
|: "D"f2 fd e>f | "G"g2 gd c>B |1,3 "A7"A2 c3 B | "D"B<A F>A d>e :|2,4 "A7"A2 cB G>E | "D"D2 D4 :|
|: "D"D2 (3FDF A2 | d2 (3fdf a2- |1,3 "A7"a>g ec A2 | "D"b>a fd A>F :|2,4 a>g e>c (3ABc | "D"d2 d4 :|

%%sep 1 1 500

